X: 1
T: The Chickens Clicking
M: 4/4
L: 1/8
R: reel
K: Dmin
DE FG AD DA|BA GB AD DC|DE FG AD D/2D/2D|ED CE GE CE|
DE FG AD DA|BA GB AD ED|C2 C=B, CE GA|GE CE D4:|
|:d2 de dA A/2A/2A|BA GB AD D/2D/2D|d2 de dA A/2A/2A|BA GB A3D|
d2 de f3e|dc AG AD ED|C2 C=B, CE GA|GE CE D4:|
